X:1
T:Beautiful Sabbath
T:William James Kirkpatrick
T:Beautiful Sabbath
T:Public Domain
T:Public Domain
C:William James Kirkpatrick
Z:Public Domain
%%score ( 1 2 ) ( 3 4 )
L:1/8
M:4/4
K:Ab
V:1 treble 
V:2 treble 
V:3 bass 
V:4 bass 
V:1
 [CA]2 [DG][DF] [CE]2 [A,C][B,D] | (EA)[EG][DF] [CE]4 | [DF]2 [DG][DA] [EA]2 [DG][CA] | %3
w: 1.~Beau- ti- ful Sab- bath, how|peace- * ful the light,|ed from E- den so tran-|
w: 2.~Beau- ti- ful Sab- bath, we|hal- * low the hours,|lent- ly bear- ing the o-|
w: 3.~Beau- ti- ful Sab- bath, when|Je- * sus our Lord|us de- vout- ly re- mem-|
w: 4.~Beau- ti- ful Sab- bath, when|la- * bor and care|to the rap- ture of song|
 [EB]2 [=DB][Dc] [EB]4 | [Ec]2 [DB][CA] [CE]2 [A,C][B,D] | ([CE][Ec])[DB][CA] [EB]4 | %6
w: quil and bright; Draw-|ing us near- er to Je-|sus * our king, While|
w: dor of flowers; Plant-|ed in gar- dens that nev-|er * de- cay, Bloom-|
w: ber His Word; O-|pens its trea- sures of wis-|dom * so dear, Trea-|
w: and of prayer; Pre-|cious the mo- ments that now|from * a- bove, Ten-|
 (ce)[Fd][_Gc] (Bd)[=Fc][_FB] | (Ac) [Dc]>[DB] [CA]4 || %8
w: in * His tem- ple * we ga-|sing. * * * *|
w: ing * in sun- shine * that fades|way. * * * *|
w: sures * that spark- le * our young|cheer. * * * *|
w: der- * ly whis- per * a mess-|love. * * * *|
[M:6/8]"^Refrain" [CE]>[CE][CE] [DF][CE][A,C] | [CE]2 [CA] [Ec]2 z | [Ec]>[EB][EA] [=Dc]>[DB][DA] | %11
w: |||
w: |||
w: |||
w: |||
 [=DB]2 [Dc] [_DB]2 z | E[=DF][_DG] [CA][EB][Ec] | [Ed]2 [Ed] [Ec]2 z | %14
w: |||
w: |||
w: |||
w: |||
 [_Ge]>[Gd][Gc] [FB]>[Fc][Fd] | [Ec][Ec][DB] [CA]2 z |] %16
w: ||
w: ||
w: ||
w: ||
V:2
 x8 | C2 x6 | x8 | x8 | x8 | x8 | E2 x _F2 x3 | E2 x6 ||[M:6/8] x6 | x6 | x6 | x6 | E x5 | x6 | %14
w: |Waft-|||||ther and||||||||
w: |Si-|||||not a-||||||||
w: |Bids|||||hearts to||||||||
w: |Yield|||||age of||||||||
 x6 | x6 |] %16
w: ||
w: ||
w: ||
w: ||
V:3
 [A,,E,]2 [A,,A,][A,,A,] [A,,A,]2 [A,,E,][A,,E,] | [A,,A,]2 [A,,A,][A,,A,] [A,,A,]4 | %2
w: ~ ~ ~ ~ ~ ~|~ ~ ~ ~|
 [D,A,]2 [D,G,][D,F,] [C,E,]2 [B,,E,][A,,A,] | [E,G,]2 [F,A,][F,A,] [G,B,]4 | %4
w: ~ ~ ~ ~ ~ ~|~ ~ ~ ~|
 A,2 A,A, [A,,A,]2 [A,,E,][A,,E,] | A,2 A,A, [E,G,]4 | (A,_G,)[F,A,][E,A,] [D,A,]2 [D,A,][D,B,] | %7
w: ~ ~ ~ ~ ~ ~|~ ~ ~ ~|~ * ~ ~ ~ Beau- ti-|
 (CA,) [E,G,]>[E,G,] [A,,E,A,]4 ||[M:6/8] [A,,A,]>[A,,A,][A,,A,] [A,,A,][A,,A,][A,,E,] | %9
w: Sab- * bath of rest,|rest, Beau- ti- ful Sab- bath,|
 [A,,A,]2 [A,,E,] [A,,A,]2 z | A,>[A,D][A,C] [F,A,]>[F,A,][F,A,] | [B,,A,]2 [B,,A,] [E,G,]2 z | %12
w: di- vine- ly|blest, Youth- ful and hap- py|hearts we bring,|
 [A,C][A,_C][A,B,] A,[A,D][A,B,] | [G,B,]2 [G,B,] A,2 z | [C,A,]>[C,A,][C,A,] [D,A,]>[D,A,][D,A,] | %15
w: Prais- ing our gra- cious Re-|er and king.||
 [E,A,][E,A,][E,G,] [A,,E,A,]2 z |] %16
w: |
V:4
 x8 | x8 | x8 | x8 | A,2 A,A, x4 | A,2 A,A, x4 | A,2 x6 | E,2 x6 ||[M:6/8] x6 | x6 | A,3/2 x9/2 | %11
w: ||||~ ~ ~|~ ~ ~|ful|sweet|||the|
 x6 | x3 A, x2 | x3 A,2 x | x6 | x6 |] %16
w: |deem-||||

